X:71
T:On Green Dolphin Street
C:Jethro Burns
N:Tabledited By Charlie Neff
L:1/8
Q:1/4=120
M:4/4
K:G
z8 | z[g2B2E2G,2][gBEG,] [g2B2E2G,2] [g2B2E2G,2] | [gBEG,][gBEG,] [g2B2E2G,2] [fBDG,]d B2 | 
[=f^ADG,][fADG,] [fADG,][f2A2D2G,2][fADG,] [fADG,][fADG,] | z[=f^ADG,] [fADG,][f2A2D2G,2][fADG,] [fADG,]z | 
A,[e2^c2G2A,2][ecGA,] [e2c2G2A,2] [e2c2G2A,2] | [e^cGA,][ecGA,] [e2c2G2A,2] [^d^GC]=c G[=d=GB,] | 
z[dGB,] [d2G2B,2] [d2F2B,2] [d2F2B,2] | [dEB,][dEB,] [dEB,][d2=F2B,2][dFB,] [d2F2B,2] | 
z[d2F2C2]z A3B | c2 d2 ^d2 =f[=dGB,] | z[dGB,] [d2G2B,2] [d2F2B,2] [d2F2B,2] | 
[dEB,][dEB,] [dEB,][d2D2B,2][dDB,] [dDB,]z | z[=f2A2^D2]z c2 zd | ^d2 =f2 g2 a2 | 
[=f^AD][fAD] [fAD][fAD] z[fAD] [f2A2D2] | [fdF][fdF] [fdF][fdF] z[fdF] [f2d2F2] | 
z[g2B2E2G,2][gBEG,] [g2B2E2G,2] [g2B2E2G,2] | [gBEG,][gBEG,] [g2B2E2G,2] [fBDG,]d B2 | 
[=f^ADG,][fADG,] [fADG,][f2A2D2G,2][fADG,] [fADG,][fADG,] | z[=f^ADG,] [fADG,][f2A2D2G,2][fADG,] [fADG,]z | 
A,[e2^c2G2A,2][ecGA,] [e2c2G2A,2] [e2c2G2A,2] | [e^cGA,][ecGA,] [e2c2G2A,2] [^d^GC]=c G[=d=GB,] | 
z[dGB,] [d2G2B,2] [d2F2B,2] [d2F2B,2] | [dEB,][dEB,] [dEB,][d2=F2B,2][dFB,] [dFB,]z | 
z[d2F2C2]z A3B | c2 d2 ^d2 [b2d2F2] | [a3^d3F3][g4B4E4G,4]z | G2 A2 B2 g2 | [f2B2D2] z[e4B4G4]z | 
[dFA,][d2F2A,2][dFA,] [d2F2^A,2] [d2F2A,2] | [g6d6E6] z2 | z6 z2 | z8 | 


